file/russia-24.svg

<svg clip-rule="evenodd" fill-rule="evenodd" stroke-linejoin="round" stroke-miterlimit="1.41421" viewBox="0 0 560 400" xmlns="http://www.w3.org/2000/svg" xmlns:xlink="http://www.w3.org/1999/xlink"><linearGradient id="a" gradientTransform="matrix(0 -180.442 180.442 0 599.752 181.461)" gradientUnits="userSpaceOnUse" x1="0" x2="1" y1="0" y2="0"><stop offset="0" stop-color="#0029a6"/><stop offset="1" stop-color="#0069e4"/></linearGradient><g transform="matrix(.493151 0 0 .493151 82.7397 155)"><path d="m0 0h600v182.5h-600z" fill="url(#a)"/><path d="m613.75 0h186.25v182.5h-186.25z" fill="#c40000"/><g fill="#fff" fill-rule="nonzero"><g transform="translate(-49.2346 -164.617)"><path d="m556.031 208.289c-17.3 0-31.562 12.426-31.562 29.727 0 11.894 6.727 22.36 16.562 27.734l-17.968 38.438h22.929l15.196-34.61h8.593v34.61h20.625v-95.899zm0 17.695h13.75v24.805h-13.75c-6.154 0-10.937-5.442-10.937-12.422s4.783-12.383 10.937-12.383z"/><path d="m492.047 208.289-34.844 55.938v-55.938h-20.625v95.899h17.891l34.492-55.391v55.391h20.625v-95.899z"/><path d="m141.689 225.979h-13.75v24.81h13.75c6.154 0 10.937-5.425 10.937-12.405s-4.783-12.405-10.937-12.405zm0-17.69c17.301 0 31.562 12.428 31.562 29.728 0 17.301-14.261 31.563-31.562 31.563h-13.75v34.608h-20.625v-95.899z"/><path d="m239.625 256.297c0-5.887-.636-11.158-.781-15.293-.335-9.529-7.634-17.207-17.07-17.207-9.437 0-16.781 7.678-17.11 17.207-.142 4.135-.781 9.406-.781 15.293s.636 11.197.781 15.332c.335 9.529 7.673 17.207 17.11 17.207 9.436 0 16.735-7.678 17.07-17.207.145-4.135.781-9.445.781-15.332zm-17.89 50.664c-21.262 0-38.477-17.254-38.477-38.516v-24.296c0-21.262 17.215-38.477 38.477-38.477 21.261 0 38.515 17.215 38.515 38.477v24.296c0 21.262-17.254 38.516-38.515 38.516z"/><path d="m312.789 205.672c-21.261 0-38.64 13.948-38.476 38.477.054 8.098 0 24.296 0 24.296 0 25.182 17.215 38.516 38.476 38.516 9.091 0 19.536-1.738 28.399-5.352l-4.532-17.89c-8.55 3.2-18.794 5.117-23.828 5.117-9.436 0-16.774-7.659-17.109-17.187-.145-4.135-.781-9.465-.781-15.352 0-5.888.638-11.139.781-15.273.329-9.529 7.673-17.227 17.109-17.227 5.416 0 16.041 1.589 24.18 4.727l4.375-17.227c-8.217-3.981-18.517-5.625-28.594-5.625z"/><path d="m392.958 205.672c-21.262 0-38.64 13.948-38.477 38.477.054 8.098 0 24.296 0 24.296 0 25.182 17.215 38.516 38.477 38.516 9.091 0 19.535-1.738 28.398-5.352l-4.531-17.89c-8.551 3.2-18.794 5.117-23.828 5.117-9.437 0-16.775-7.659-17.11-17.187-.145-4.135-.781-9.465-.781-15.352 0-5.888.639-11.139.781-15.273.329-9.529 7.673-17.227 17.11-17.227 5.415 0 16.041 1.589 24.179 4.727l4.375-17.227c-8.217-3.981-18.516-5.625-28.593-5.625z"/></g><g transform="translate(-39.7268 -164.617)"><path d="m790.984 258.718v20.115h-42.929v-20.115zm.305-51.155-43.031 48.218h26.531l43.032-48.218zm3 0v.781l.688-.781zm22.563 5.218-22.563 25.282v61.25h22.563z"/><path d="m710.164 207.594v20.25c4.464.808 7.844 4.708 7.844 9.406 0 7.74-5.448 12.942-13.156 19.188l-29.469 23.875v17.906h17.156l36.688-32.094c8.05-7.042 14.406-17.186 14.406-30.594 0-18.645-14.92-27.698-33.469-27.937zm-2.843.062c-16.708 1.005-30.153 14.004-31.907 30.5h23.5c-.028-.301-.031-.597-.031-.906 0-4.9 3.689-8.908 8.438-9.469zm13.312 69.219-24.406 21.344h46.687v-21.344z"/></g></g></g></svg>

<?xml version="1.0" encoding="UTF-8" standalone="no"?>
<!DOCTYPE svg PUBLIC "-//W3C//DTD SVG 1.1//EN" "http://www.w3.org/Graphics/SVG/1.1/DTD/svg11.dtd">
<svg width="100%" height="100%" viewBox="0 0 560 400" version="1.1" xmlns="http://www.w3.org/2000/svg" xmlns:xlink="http://www.w3.org/1999/xlink" xml:space="preserve" xmlns:serif="http://www.serif.com/" style="fill-rule:evenodd;clip-rule:evenodd;stroke-linejoin:round;stroke-miterlimit:1.41421;">
    <g transform="matrix(0.493151,0,0,0.493151,82.7397,155)">
        <rect id="rect2989" x="0" y="0" width="600" height="182.5" style="fill:url(#_Linear1);"/>
        <rect id="rect2991" x="613.75" y="0" width="186.25" height="182.5" style="fill:rgb(196,0,0);"/>
        <g id="g3908" transform="matrix(1,0,0,1,-49.2346,-164.617)">
            <path id="path3914" d="M556.031,208.289C538.731,208.289 524.469,220.715 524.469,238.016C524.469,249.91 531.196,260.376 541.031,265.75L523.063,304.188L545.992,304.188L561.188,269.578L569.781,269.578L569.781,304.188L590.406,304.188L590.406,208.289L556.031,208.289ZM556.031,225.984L569.781,225.984L569.781,250.789L556.031,250.789C549.877,250.789 545.094,245.347 545.094,238.367C545.094,231.387 549.877,225.984 556.031,225.984Z" style="fill:white;fill-rule:nonzero;"/>
            <path id="rect3804" d="M492.047,208.289L457.203,264.227L457.203,208.289L436.578,208.289L436.578,304.188L454.469,304.188L488.961,248.797L488.961,304.188L509.586,304.188L509.586,208.289L492.047,208.289Z" style="fill:white;fill-rule:nonzero;"/>
            <path id="path3845" d="M141.689,225.979L127.939,225.979L127.939,250.789L141.689,250.789C147.843,250.789 152.626,245.364 152.626,238.384C152.626,231.404 147.843,225.979 141.689,225.979ZM141.689,208.289C158.99,208.289 173.251,220.717 173.251,238.017C173.251,255.318 158.99,269.58 141.689,269.58L127.939,269.58L127.939,304.188L107.314,304.188L107.314,208.289L141.689,208.289Z" style="fill:white;fill-rule:nonzero;"/>
            <path id="path3865" d="M239.625,256.297C239.625,250.41 238.989,245.139 238.844,241.004C238.509,231.475 231.21,223.797 221.774,223.797C212.337,223.797 204.993,231.475 204.664,241.004C204.522,245.139 203.883,250.41 203.883,256.297C203.883,262.184 204.519,267.494 204.664,271.629C204.999,281.158 212.337,288.836 221.774,288.836C231.21,288.836 238.509,281.158 238.844,271.629C238.989,267.494 239.625,262.184 239.625,256.297ZM221.735,306.961C200.473,306.961 183.258,289.707 183.258,268.445L183.258,244.149C183.258,222.887 200.473,205.672 221.735,205.672C242.996,205.672 260.25,222.887 260.25,244.149L260.25,268.445C260.25,289.707 242.996,306.961 221.735,306.961Z" style="fill:white;fill-rule:nonzero;"/>
            <path id="path3888" d="M312.789,205.672C291.528,205.672 274.149,219.62 274.313,244.149C274.367,252.247 274.313,268.445 274.313,268.445C274.313,293.627 291.528,306.961 312.789,306.961C321.88,306.961 332.325,305.223 341.188,301.609L336.656,283.719C328.106,286.919 317.862,288.836 312.828,288.836C303.392,288.836 296.054,281.177 295.719,271.649C295.574,267.514 294.938,262.184 294.938,256.297C294.938,250.409 295.576,245.158 295.719,241.024C296.048,231.495 303.392,223.797 312.828,223.797C318.244,223.797 328.869,225.386 337.008,228.524L341.383,211.297C333.166,207.316 322.866,205.672 312.789,205.672Z" style="fill:white;fill-rule:nonzero;"/>
            <path id="path3890" d="M392.958,205.672C371.696,205.672 354.318,219.62 354.481,244.149C354.535,252.247 354.481,268.445 354.481,268.445C354.481,293.627 371.696,306.961 392.958,306.961C402.049,306.961 412.493,305.223 421.356,301.609L416.825,283.719C408.274,286.919 398.031,288.836 392.997,288.836C383.56,288.836 376.222,281.177 375.887,271.649C375.742,267.514 375.106,262.184 375.106,256.297C375.106,250.409 375.745,245.158 375.887,241.024C376.216,231.495 383.56,223.797 392.997,223.797C398.412,223.797 409.038,225.386 417.176,228.524L421.551,211.297C413.334,207.316 403.035,205.672 392.958,205.672Z" style="fill:white;fill-rule:nonzero;"/>
        </g>
        <g id="g4059" transform="matrix(1,0,0,1,-39.7268,-164.617)">
            <path id="rect3808" d="M790.984,258.718L790.984,278.833L748.055,278.833L748.055,258.718L790.984,258.718ZM791.289,207.563L748.258,255.781L774.789,255.781L817.821,207.563L791.289,207.563ZM794.289,207.563L794.289,208.344L794.977,207.563L794.289,207.563ZM816.852,212.781L794.289,238.063L794.289,299.313L816.852,299.313L816.852,212.781Z" style="fill:white;fill-rule:nonzero;"/>
            <path id="path3825" d="M710.164,207.594L710.164,227.844C714.628,228.652 718.008,232.552 718.008,237.25C718.008,244.99 712.56,250.192 704.852,256.438L675.383,280.313L675.383,298.219L692.539,298.219L729.227,266.125C737.277,259.083 743.633,248.939 743.633,235.531C743.633,216.886 728.713,207.833 710.164,207.594ZM707.321,207.656C690.613,208.661 677.168,221.66 675.414,238.156L698.914,238.156C698.886,237.855 698.883,237.559 698.883,237.25C698.883,232.35 702.572,228.342 707.321,227.781L707.321,207.656L707.321,207.656ZM720.633,276.875L696.227,298.219L742.914,298.219L742.914,276.875L720.633,276.875Z" style="fill:white;fill-rule:nonzero;"/>
        </g>
    </g>
    <defs>
        <linearGradient id="_Linear1" x1="0" y1="0" x2="1" y2="0" gradientUnits="userSpaceOnUse" gradientTransform="matrix(1.10489e-14,-180.442,180.442,1.10489e-14,599.752,181.461)"><stop offset="0" style="stop-color:rgb(0,41,166);stop-opacity:1"/><stop offset="1" style="stop-color:rgb(0,105,228);stop-opacity:1"/></linearGradient>
    </defs>
</svg>
